Papirus/16x16/apps/retroarch.svg

<svg width="16" height="16" version="1" xmlns="http://www.w3.org/2000/svg">
 <rect width="16" height="16" rx=".8" ry=".8" style="fill:#bf4d41;stop-color:#000000"/>
 <path d="m5 4 1.5 2h-2.5l-0.25 1h-1.1503906l0.4003906-2h-1l-0.8007812 4h2.1015624l-0.3007812 1h2l-1.5 2h1.5l1.5-2h3l1.5 2h1.5l-1.5-2h2l-0.300781-1h2.101562l-0.800781-4h-1l0.400391 2h-1.150391l-0.25-1h-2.5l1.5-2h-1l-1.5 2h-1l-1.5-2h-1zm0 3h1v1h-1v-1zm5 0h1v1h-1v-1z" style="fill:#ffffff"/>
</svg>

<svg xmlns="http://www.w3.org/2000/svg" width="16" height="16" version="1">
 <rect style="fill:#e4e4e4" width="16" height="16" x="0" y="0" rx=".8" ry=".8"/>
 <path style="fill:#565656" d="M 5,4 6.5,6 4,6 3.7507812,7 2.6,7 3,5 2,5 1.2,9 2,9 3.3,9 3,10 l 2,0 -1.5,2 1.5,0 1.5,-2 3,0 1.5,2 1.5,0 L 11,10 13,10 12.7,9 14.8,9 14,5 13,5 13.4,7 12.249219,7 12,6 9.5,6 11,4 10,4 8.5,6 7.5,6 6,4 Z"/>
 <path style="fill:#ffffff" d="M 5,7 5,8 6,8 6,7 5,7 Z"/>
 <path style="fill:#ffffff" d="m 10,7 0,1 1,0 0,-1 -1,0 z"/>
</svg>
